icons/wheelchair-fill.svg

<svg viewBox="0 0 24 24" fill="currentColor" xmlns="http://www.w3.org/2000/svg">
    <path d="M7.99837 10.3413L7.99793 12.5352C6.80239 13.2268 5.99805 14.5195 5.99805 16C5.99805 18.2091 7.78891 20 9.99805 20C11.4786 20 12.7712 19.1957 13.4628 18.0001L15.6565 18.0004C14.8327 20.3306 12.6103 22 9.99805 22C6.68434 22 3.99805 19.3137 3.99805 16C3.99805 13.3874 5.66782 11.1649 7.99837 10.3413ZM11.998 17C10.3412 17 8.99805 15.6569 8.99805 14V10C8.99805 8.34315 10.3412 7 11.998 7C13.6549 7 14.998 8.34315 14.998 10V15H16.4319C17.0803 15 17.6849 15.3141 18.0584 15.8362L18.1468 15.971L20.8555 20.4855L19.1406 21.5145L16.4319 17H11.998ZM11.998 2C13.3788 2 14.498 3.11929 14.498 4.5C14.498 5.88071 13.3788 7 11.998 7C10.6173 7 9.49805 5.88071 9.49805 4.5C9.49805 3.11929 10.6173 2 11.998 2Z"/>
</svg>

<svg xmlns="http://www.w3.org/2000/svg" viewBox="0 0 24 24">
    <g>
        <path fill="none" d="M0 0H24V24H0z"/>
        <path d="M8 10.341v2.194C6.804 13.227 6 14.52 6 16c0 2.21 1.79 4 4 4 1.48 0 2.773-.804 3.465-2h2.193c-.823 2.33-3.046 4-5.658 4-3.314 0-6-2.686-6-6 0-2.613 1.67-4.835 4-5.659zM12 17c-1.657 0-3-1.343-3-3v-4c0-1.657 1.343-3 3-3s3 1.343 3 3v5h1.434c.648 0 1.253.314 1.626.836l.089.135 2.708 4.515-1.714 1.028L16.433 17H12zm0-15c1.38 0 2.5 1.12 2.5 2.5S13.38 7 12 7 9.5 5.88 9.5 4.5 10.62 2 12 2z"/>
    </g>
</svg>
